christmas.trees/img/svg/icon-card.svg

<svg width="23" height="21" viewBox="0 0 23 21" fill="none" xmlns="http://www.w3.org/2000/svg">
<path d="M22.6403 3.73369C22.3317 3.35195 21.8732 3.13304 21.3823 3.13304H3.85144L3.69489 2.01108C3.58403 1.2166 2.89547 0.617432 2.09321 0.617432H0.718746C0.321818 0.617432 0 0.93925 0 1.33618C0 1.7331 0.321818 2.05492 0.718746 2.05492H2.09321C2.18234 2.05492 2.25888 2.1215 2.27115 2.20977L4.21127 16.1143C4.32213 16.9088 5.01069 17.508 5.81295 17.508H6.59229C6.51251 17.7329 6.46867 17.9747 6.46867 18.2267C6.46867 19.4156 7.43596 20.3829 8.6249 20.3829C9.81384 20.3829 10.7811 19.4156 10.7811 18.2267C10.7811 17.9747 10.7373 17.7329 10.6575 17.508H14.4985C14.4187 17.7329 14.3749 17.9747 14.3749 18.2267C14.3749 19.4156 15.3422 20.3829 16.5311 20.3829C17.72 20.3829 18.6873 19.4156 18.6873 18.2267C18.6873 17.9747 18.6435 17.7329 18.5637 17.508H20.1249C20.5218 17.508 20.8436 17.1861 20.8436 16.7892C20.8436 16.3923 20.5218 16.0705 20.1249 16.0705H5.81299C5.72387 16.0705 5.64732 16.0039 5.63506 15.9156L5.45609 14.633H19.611C20.3683 14.633 21.0333 14.0955 21.1924 13.3546L22.9637 5.08915C23.0666 4.60935 22.9487 4.1153 22.6403 3.73369ZM9.3437 18.2267C9.3437 18.623 9.02125 18.9454 8.62495 18.9454C8.22865 18.9454 7.9062 18.623 7.9062 18.2267C7.9062 17.8304 8.22865 17.508 8.62495 17.508C9.02125 17.508 9.3437 17.8304 9.3437 18.2267ZM17.2499 18.2267C17.2499 18.623 16.9275 18.9454 16.5312 18.9454C16.1349 18.9454 15.8124 18.623 15.8124 18.2267C15.8124 17.8304 16.1349 17.508 16.5312 17.508C16.9275 17.508 17.2499 17.8304 17.2499 18.2267ZM21.5581 4.78782L19.7869 13.0531C19.7692 13.1356 19.6952 13.1954 19.611 13.1954H5.25547L4.05202 4.57049H21.3822C21.4534 4.57049 21.4976 4.60679 21.5223 4.63724C21.5468 4.66765 21.573 4.71846 21.5581 4.78782Z" fill="white"/>
</svg>

<svg width="23" height="21" fill="none" xmlns="http://www.w3.org/2000/svg"><path d="M22.64 3.734a1.61 1.61 0 00-1.258-.601H3.852l-.157-1.122A1.624 1.624 0 002.093.617H.72a.719.719 0 000 1.438h1.374a.18.18 0 01.178.155l1.94 13.904c.111.795.8 1.394 1.602 1.394h.78a2.159 2.159 0 002.033 2.875 2.159 2.159 0 002.031-2.875h3.841a2.159 2.159 0 002.033 2.875 2.159 2.159 0 002.033-2.875h1.56a.719.719 0 000-1.438H5.814a.18.18 0 01-.178-.154l-.179-1.283h14.155c.757 0 1.422-.537 1.581-1.278l1.772-8.266a1.61 1.61 0 00-.324-1.355zM9.344 18.227a.72.72 0 11-1.44-.002.72.72 0 011.44.002zm7.906 0a.72.72 0 11-1.44-.002.72.72 0 011.44.002zm4.308-13.44l-1.771 8.266a.18.18 0 01-.176.142H5.255L4.052 4.57h17.33c.071 0 .116.037.14.067.025.03.051.081.036.15z" fill="#fff"/></svg>
